X:1
T:Nocturne
T:Nocturne
T:from Two Pieces for Violin and Piano
T:Lili Boulanger
C:Lili Boulanger
%%score 1 { ( 2 4 ) | ( 3 5 6 ) }
L:1/8
Q:1/4=63
M:4/4
K:F
V:1 treble nm="Violin" snm="Vln."
V:2 treble nm="Piano" snm="Pno."
V:4 treble 
V:3 treble 
V:5 treble 
V:6 treble 
V:1
"^Assez lent \n\n" z8 | z8 |!p!"_doux (soft)" (G>A B2- B)(A/B/ AG) | (G>A B2- B)(A/B/ AG) | %4
 (F>G !breath!A2) (!tenuto!=B!tenuto!c!tenuto!d!tenuto!c) | %5
 (F>G A3/2) z3/2"^à l'aise (at ease, comfortable)"!<(! (EF!mp!^F)!<)! |!p! (B>c d2- d)(c/d/ cB) | %7
 (B>c d2- d)!>(!(c/d/ cB)!>)! |!pp! G>A B4 AG | (G>A B4)!<(! (cd)!<)! | %10
!mf! (e2"_plus intense (more intense)" d4) (df) |"^un peu animé (a bit lively)" (B>c) (_d4 =d2) | %12
 (B>c!<(! !breath!_d4)!<)!!f! (3(=d_e=e) |!mf! (^f^g) =b2- b(^c'^d'e' | %14
 ^f'^g')!>(! (=b'4!>)!!mp! =B2) |"^un peu plus animé (a bit more lively)" e4- !breath!e!<(!(A=Bc) | %16
 (d2!<)!!mf! e2- (3!breath!e)(de!>(! (5:4:5^f/g/^g/a/^a/)!>)! |!mp! !breath!=b4 z2!p! =B2 | %18
 (e4- (6:4:6e/!mp!^c/^d/c/=B/A/!>(! (6:4:6^G/^F/G/A/B/c/)!>)! |!pp! =B4 (3z (^F^G!<(! (3AB^c)!<)! | %20
!p! e4 z"^augmentez et animez (increase and animate)" (!>!A- (7:4:7A/!<(!=B/c/d/e/f/^f/!<)! | %21
!mp! g4) z (!>!G- (9:8:9G/4!mf!A/4=B/4c/4d/4e/4f/4g/4^g/4 | %22
!mp! a4) z (!>!A- A/4!mf!!<(!B/4^c/4^d/4e/4f/4g/4a/4 | %23
!mf! _b4)!<)! z (!>!B- (9:8:9B/4!f!!<(!c/4d/4_e/4f/4g/4_a/4=a/4b/4!<)! | %24
!f! =b4) z !>!G- (11:8:11G/4!ff!!<(!A/4"^rit."[Q:1/4=63]=B/4[Q:1/4=60]"^.4"c/4[Q:1/4=57]"^.8"d/4[Q:1/4=55]"^.3"e/4[Q:1/4=52]"^.8"f/4[Q:1/4=50]"^.2"g/4[Q:1/4=47]"^.7"a/4[Q:1/4=45]"^.1"_b/4[Q:1/4=42]"^.6"=b/4!<)![Q:1/4=54] | %25
!ff![Q:1/4=40]"^sans lenteur (without delay)" c'4 z"_très vibrant (very bright)" c'({_bc'}ba) | %26
!>(! (a2"^revenez au mouvement petit à petit\n(return movement little by little)"[Q:1/4=42] g2-!>)!!mf![Q:1/4=45]"^.2" !breath!g)[Q:1/4=46]"^.7"(a[Q:1/4=48]"^.3"c'[Q:1/4=49]"^.9"a[Q:1/4=43]"^.6" | %27
[Q:1/4=51]"^.5" c4-[Q:1/4=57]"^.8" !breath!c)[Q:1/4=59]"^.4"(d[Q:1/4=60]"^.9"e[Q:1/4=62]"^.5"d)[Q:1/4=53]"^.1"[Q:1/4=54]"^.6"[Q:1/4=56]"^.2" | %28
[Q:1/4=64]"^.1" c3[Q:1/4=68]"^.8" d-[Q:1/4=70]"^.4" d[Q:1/4=72]"^ralentissez"!>(! (e2[Q:1/4=66] d)!>)![Q:1/4=65]"^.7"[Q:1/4=67]"^.3"[Q:1/4=69] | %29
!p![Q:1/4=63]!<(! !breath!g6!<)!!mf!({ac'} ba) | %30
 g4- (3g!>(!(!tenuto!b!tenuto!a (3!tenuto!g!tenuto!a!tenuto!b!>)! |!pp!!>(! c'8- | %32
!ppp! c'4)!>)! z4 | z8 | z8 | z4!pp! (c3"_très doux" (3=B/_B/A/ | %36
 _A4)"_en s'éloignant\n(evaporating)\n" (_E2 F2) | (G(3A/G/F/ G2) c4 | %38
"^cédez (yield)" z2 (ef) (^f2 g2 | a2)!>(! (c'4 d'2)!>)! |!ppp! f'8- | f'2 z2 z4 |] %42
V:2
!pp! z8 | z8 | !tenuto![Bd]4 !tenuto![B_d]4 | x8 | !tenuto![Ac]4 !tenuto![_A=B]4 | x8 | %6
!mf! !tenuto![_G_B]4 !tenuto![E^G]4 | x8 |!pp! !tenuto![B,DF=G]4 !tenuto![B,_DEA]4 | %9
 !tenuto![B,DFG]4 !tenuto![B,EA]4 |!mp! !tenuto![A,CEF]4 !tenuto![_G,=B,DF]4 | %11
 !tenuto![_G,_B,C]4 !tenuto![E,^G,C]4 | !tenuto![_G,B,C]4!mf! !tenuto![E,^G,C]4 | %13
!f!"_soutenu" (^F,[=B,E^F])(B,[EF=B]) ([EFB]B,)([B,EF]F,) | %14
 (^F,[=B,E^F])(B,[EF=B])!>(! ([EFB]B,)!>)!!mf!([B,EF]F,) | z (^F,[CE^F]F,) z (F,[CEF]F,) | x8 | %17
"_plus intense (more intense)" ([^C^G][A,^D]!>(![CG][A,D] [CG][A,D]!pp![C^F]!>)![A,D]) | %18
 (!>![A,E][^F,^C][A,E][F,C] [A,E][F,C][A,E][F,C]) | %19
"_soutenu"!mf! ([^C^G][A,^D][CG][A,D] [CG][A,D][C^F][A,D]) | %20
 ([C^F][^F,E][CF][F,E] [CF]!<(![F,E][CF][F,E])!<)! | %21
 ([CG][A,E][CG][A,E] [CG]!<(![A,E][CG][A,E])!<)! | %22
 ([^DA][=B,G][DA][B,G] [DA]!<(![B,G][DA][B,G])!<)! | %23
!f! ([_E_B][B,G][EB][B,G] [EB]!<(![B,G][EB][B,G])!<)! | ([F=B][=B,G][FB][B,G] [FB][B,G][FB][B,G]) | %25
!ff!"_sonore (resonant)" ([CFG_Bc][DA][B,F][DA]) (!tenuto![_DA]!>(![B,E][B,E][DA])!>)! | %26
 ([=DA][B,E][B,E][DA]) (!tenuto![_DA][B,E][B,E][DA]) | %27
!mf! ([CF][A,=D][A,D][CF]) ([=B,F][_A,D][A,D][B,F]) | %28
 ([CF][=A,D][A,D][CF]) (!tenuto![=B,F]!>(![_A,D][A,D][B,F])!>)! | %29
[K:bass] !tenuto![F,G,_B,D]4 !tenuto![E,G,B,_D]4 | !tenuto![F,G,_B,D]4 !tenuto![E,G,B,_D]4 | %31
!p!"^en dehors,doucement chanté\n(airy, softly singing)\n" !tenuto![B,=DE]4 [B,_DE]4 | %32
 [B,=DE]4!<(! [B,_DE]4!<)! |!mf!!<(! [_EGA]4!<)!!f! [EA]4 | %34
 [DF]2!mp! ([CD]B,"^cédez (yield)" F,2) [_DF]2 |!pp! !>![CFAc]4 x4 | ([_A,_C_E_A]8 | %37
 [B,=DFG]4)!<(! (!tenuto!C2 D2!<)! |!mp! E2) (!>![Bd]4!>(! [A^c]2)!>)! | %39
!pp! ([_GB]2!>(! [FA]4 [E^G]2!>)! |!ppp! [B,DF=G]4) !tenuto![FGfg]4 | !tenuto![faf']6 z2 |] %42
V:3
"_2 ped.""^très doux et soutenu (very soft and sustained)"!8vb(!!ped! (C,C)!8vb)!cc' (c'c)(cC) | %1
 x8 | x8 | x8 | x8 |!8vb(! (C,C)!8vb)!cc' (c'"^à l'aise (easy)"c)(cC) | %6
!8vb(! (C,"^expressif (soulful)"C)!8vb)!cc' (c'!>(!c)(cC)!>)! | %7
!8vb(! (C,C)!8vb)!cc' (c'!>(!c)(cC)!>)! |!8vb(! (C,!<(!C)!8vb)!cc'!<)!!mp! (c'!>(!c)(cC)!>)! | %9
!pp!!8vb(! (C,C)!8vb)!!<(!cc' (c'c)(cC)!<)! | x8 | x8 | %12
!8vb(! (C,!<(!C)!8vb)!cc'!<)! (c'c)(cC)!ped-up! | %13
[K:bass]!ped! !tenuto![E,,=B,,E,]4 !tenuto!^G4!ped-up! | !tenuto![E,,=B,,E,]4 !tenuto!^G4 | %15
!mf! !tenuto![D,,A,,D,]4 !tenuto!^G4 | x8 | [=B,,,=B,,]2 B,,,2!8va(! =b4!8va)! | %18
 [=B,,^C,]2 =B,,,2!8va(! =B4!8va)! |!ped! !tenuto![=B,,^F,]2 =B,,,2!8va(! =b4!ped-up!!8va)! | %20
 !tenuto![A,,E,]2 !tenuto!A,,,2!8va(! e4!8va)! | !tenuto![G,,E,A,]2 !tenuto!B,,,2!8va(! g4!8va)! | %22
 !>![F,,=B,,A,]2 F,,,2!8va(! a4!8va)! | !>![_E,,_B,,G,]2 _E,,,2!8va(! b4!8va)! | %24
 !>![_D,,G,,F,]2!8vb(! _D,,,2!8va(! =b4!8vb)!!8va)! |!ped! !>![C,,C,]8!8va(!!ped-up!!8va)! | %26
!mf! [C,,C,]8 | C,8 | C,8 |[K:treble]!p!!8vb(!!ped! (C,C)!8vb)!(cc') (c'c)(cC)!ped-up! | %30
!8vb(! (C,C)!8vb)!(cc')!>(! (c'c)(c!>)!!pp!C) |!ped! F,,8!ped-up! | F,,8 | F,,8 | F,,8 | %35
 C,2 z2 =D4 | F,,8 | F,,8 | F,,8 | F,,8 |!ppp! [F,,B,,D,G,]8[K:treble] | %41
 !tenuto![Fc]4[K:bass] [F,,,F,,]2 z2 |] %42
V:4
 x8 | x8 | x8 | x8 | x8 | x8 | x8 | x8 | x8 | x4 (_D2 C2) | x8 | x8 | x8 | x8 | x8 | x8 | x8 | %17
 !>!^G6 !>!^F2 | !>!E2 x2 x4 | !>!^G6 !>!^F2 | x8 | x8 | x8 | x8 | x8 | x8 | x8 | x8 | x8 | %29
[K:bass] x8 | x8 | (GAEF G2 A2) | (GAEF G2 AB) | (=B2 c2- c!>(!dfd) | c!>)!d F4 G2 | %35
 z2"_un peu en dehors\n(a bit airy)\n" (Cc) (c'c)(cC) | z4 [_c_c']4 | x8 | [B,D]8 | B,2 B,6 | x8 | %41
 x8 |] %42
V:5
!8vb(! x2!8vb)! x6 | x8 | x8 | x8 | x8 |!8vb(! x2!8vb)! x6 |!8vb(! x2!8vb)! x6 | %7
!8vb(! x2!8vb)! x6 |!8vb(! x2!8vb)! x6 |!8vb(! x2!8vb)! x6 | x8 | x8 |!8vb(! x2!8vb)! x6 | %13
[K:bass] x8 | x8 | x8 | x8 | x4!8va(! x4!8va)! | x4!8va(! x4!8va)! | x4!8va(! x4!8va)! | %20
 x4!8va(! x4!8va)! | x4!8va(! x4!8va)! | x4!8va(! x4!8va)! | x4!8va(! x4!8va)! | %24
 x2!8vb(! x2!8va(! x4!8vb)!!8va)! | z2!8va(! (.c2 !tenuto!c'4)!8va)! | %26
 z2!8va(! (.c2 !tenuto!c'4)!8va)! | z2!8va(! (.c2 !tenuto!c'4)!8va)! | %28
 z2!8va(! (.c2 !tenuto!c'4)!8va)! |[K:treble]!8vb(! x2!8vb)! x6 |!8vb(! x2!8vb)! x6 | %31
 z C,2 C2 C2 C, | z C,2 C2 C2 C, | z C,2 C2 C2 C, | z C,2 C, D,2 (C,!>(!B,, | F,,C,)!>)! x2 x4 | %36
 z (_C,2 _C2) (C2 C,) | z =C,2 C!8va(! .c'!8va)! (C2 C,) | z =C,2 C!8va(! .c'!8va)! (C2 C,) | %39
 z =C,2 C!8va(! .c'!8va)! (C2 C,) | z (C,2 C)[K:treble] (z c2) C | x4[K:bass] x4 |] %42
V:6
!8vb(! x2!8vb)! x6 | x8 | x8 | x8 | x8 |!8vb(! x2!8vb)! x6 |!8vb(! x2!8vb)! x6 | %7
!8vb(! x2!8vb)! x6 |!8vb(! x2!8vb)! x6 |!8vb(! x2!8vb)! x6 | x8 | x8 |!8vb(! x2!8vb)! x6 | %13
[K:bass] x8 | x8 | x8 | x8 | x4!8va(! x4!8va)! | x4!8va(! x4!8va)! | x4!8va(! x4!8va)! | %20
 x4!8va(! x4!8va)! | x4!8va(! x4!8va)! | x4!8va(! x4!8va)! | x4!8va(! x4!8va)! | %24
 x2!8vb(! x2!8va(! x4!8vb)!!8va)! | x2!8va(! x6!8va)! | x2!8va(! x6!8va)! | x2!8va(! x6!8va)! | %28
 x2!8va(! x6!8va)! |[K:treble]!8vb(! x2!8vb)! x6 |!8vb(! x2!8vb)! x6 | x8 | x8 | x4 !tenuto!G,4 | %34
 x4 (CB, F,2) | A, x x2 x4 | x8 | x4!8va(! x!8va)! x3 | x4!8va(! x!8va)! x3 | x4!8va(! x!8va)! x3 | %40
 x4[K:treble] [DB]4 | x4[K:bass] x4 |] %42

